img/tablet-images/icon_vkontakte-tablet-active.svg

<svg width="30" height="22" viewBox="0 0 30 22" fill="none" xmlns="http://www.w3.org/2000/svg">
<path d="M0.0914307 5.48964C0.0914307 4.63461 0.643326 4.17356 1.74712 4.1065L6.00052 4.13165C6.28599 4.13165 6.47629 4.25739 6.57145 4.50887C7.00916 5.76626 7.4992 6.85182 8.04158 7.76552C8.58397 8.67923 9.29287 9.73125 10.1683 10.9216C10.2444 11.0725 10.3681 11.1479 10.5394 11.1479C10.6726 11.1479 10.7773 11.0892 10.8534 10.9719L10.939 10.6953L10.9676 6.34467C10.9676 6.04289 10.8867 5.84171 10.7249 5.74112C10.5632 5.64052 10.2634 5.56508 9.82573 5.51478C9.48318 5.46449 9.3119 5.28007 9.3119 4.96153C9.3119 4.89447 9.32141 4.84417 9.34044 4.81064C9.74009 3.7209 10.8819 3.17603 12.766 3.17603L14.3646 3.15088C15.0878 3.15088 15.6872 3.31015 16.163 3.62869C16.6388 3.94723 16.8767 4.45019 16.8767 5.13757V10.8461C17.0099 10.93 17.1336 10.9719 17.2478 10.9719C17.5332 10.9719 17.7806 10.821 17.99 10.5192C20.0834 7.93737 21.2157 6.21054 21.387 5.33875C21.387 5.32198 21.406 5.28007 21.4441 5.21301C21.5773 4.96153 21.7962 4.74358 22.1007 4.55916C22.4051 4.37474 22.6716 4.24901 22.9 4.18194C22.9761 4.14841 23.0617 4.13165 23.1569 4.13165H27.5816L27.867 4.1568C28.2476 4.1568 28.5426 4.31607 28.752 4.63461C28.8281 4.7352 28.8804 4.84417 28.909 4.96153C28.9375 5.07889 28.9565 5.19624 28.966 5.3136C28.9756 5.43096 28.9803 5.49802 28.9803 5.51478V5.69082C28.8471 6.3782 28.5093 7.11168 27.9669 7.89126C27.4245 8.67085 26.7347 9.51331 25.8973 10.4186C25.06 11.324 24.5366 11.9191 24.3273 12.2041C24.156 12.4053 24.0704 12.5897 24.0704 12.7574C24.0704 12.8915 24.1465 13.0424 24.2987 13.2101L28.4665 17.8373C28.6949 18.1055 28.809 18.3989 28.809 18.7174C28.809 19.103 28.6378 19.4216 28.2952 19.6731C27.9527 19.9245 27.5435 20.0671 27.0677 20.1006L26.5824 20.1257H22.2434C22.2244 20.1257 22.1863 20.1299 22.1292 20.1383C22.0721 20.1467 22.034 20.1509 22.015 20.1509C21.5963 20.1509 21.2062 19.9916 20.8446 19.6731C20.7114 19.5389 19.8169 18.5498 18.1613 16.7056C18.0661 16.5883 17.9329 16.4793 17.7616 16.3787C17.6855 16.6469 17.5856 17.0325 17.4619 17.5355C17.3382 18.0385 17.2478 18.3989 17.1907 18.6169L17.105 19.0444C16.9147 19.6312 16.5151 19.9832 15.9061 20.1006L15.5065 20.1257H12.7089C11.1293 20.1257 9.55454 19.4887 7.98449 18.2145C6.41444 16.9403 5.0014 15.2931 3.74536 13.2729C2.48932 11.2527 1.31892 8.90137 0.234162 6.21893C0.139008 6.00098 0.0914307 5.75788 0.0914307 5.48964ZM17.2478 12.003C16.8481 12.003 16.4865 11.9065 16.163 11.7137C15.8395 11.5209 15.6777 11.2569 15.6777 10.9216V5.13757C15.6777 4.80226 15.5826 4.56335 15.3923 4.42085C15.202 4.27834 14.8689 4.20709 14.3931 4.20709L12.766 4.25739C11.9477 4.25739 11.3292 4.38313 10.9105 4.63461C11.7479 4.98668 12.1665 5.5567 12.1665 6.34467V10.7707C12.1285 11.1898 11.9382 11.5377 11.5956 11.8143C11.253 12.091 10.8724 12.2293 10.4538 12.2293C9.88282 12.2293 9.44511 11.9862 9.14062 11.5C7.65621 9.52169 6.55242 7.64398 5.82924 5.86686L5.57233 5.21301L1.77566 5.18786C1.52826 5.18786 1.39029 5.20044 1.36174 5.22558C1.3332 5.25073 1.31892 5.32198 1.31892 5.43934C1.31892 5.59023 1.33795 5.7495 1.37602 5.91715L1.97549 7.32544C3.57408 10.9635 5.31065 13.8304 7.18519 15.926C9.05974 18.0217 10.901 19.0695 12.7089 19.0695H15.5635C15.6777 19.0695 15.7634 19.0402 15.8205 18.9815C15.8776 18.9228 15.9251 18.8097 15.9632 18.642L16.0203 18.3905L16.5627 16.1775C16.7149 15.8757 16.8481 15.6745 16.9623 15.574C17.1717 15.3895 17.4191 15.2973 17.7045 15.2973C18.1613 15.2973 18.6275 15.5404 19.1033 16.0266L21.5297 18.7426C21.682 18.9605 21.8437 19.0695 22.015 19.0695H26.7252C27.2961 19.0695 27.5816 18.9438 27.5816 18.6923C27.5816 18.6085 27.553 18.5246 27.4959 18.4408L23.3567 13.889C23.0332 13.537 22.8714 13.1598 22.8714 12.7574C22.8714 12.355 23.0237 11.9694 23.3281 11.6006C23.5755 11.2653 24.0561 10.7078 24.7697 9.92825C25.4834 9.14866 26.1067 8.41937 26.6395 7.74038C27.1724 7.06138 27.5245 6.44526 27.6957 5.892L27.7814 5.56508C27.7623 5.53155 27.7528 5.47706 27.7528 5.40162C27.7528 5.32617 27.7433 5.2633 27.7243 5.21301H23.2425C22.957 5.3136 22.7287 5.46449 22.5574 5.66567L22.3861 6.14348C21.9103 7.30029 20.6638 9.08579 18.6465 11.5C18.2469 11.8353 17.7806 12.003 17.2478 12.003Z" fill="#c9e0bb"/>
</svg>

<svg width="30" height="22" fill="none" xmlns="http://www.w3.org/2000/svg"><path d="M.091 5.49c0-.855.552-1.316 1.656-1.384l4.254.026c.285 0 .475.125.57.377.438 1.257.928 2.343 1.47 3.257.543.913 1.252 1.965 2.127 3.156.076.15.2.226.371.226a.356.356 0 00.314-.176l.086-.277.029-4.35c0-.302-.081-.503-.243-.604-.162-.1-.462-.176-.9-.226-.342-.05-.513-.235-.513-.553 0-.068.01-.118.028-.151.4-1.09 1.542-1.635 3.426-1.635l1.599-.025c.723 0 1.322.16 1.798.478.476.318.714.821.714 1.509v5.708a.706.706 0 00.37.126c.286 0 .534-.151.743-.453 2.093-2.582 3.226-4.308 3.397-5.18a.41.41 0 01.057-.126c.133-.251.352-.47.657-.654.304-.184.57-.31.799-.377a.63.63 0 01.257-.05h4.425l.285.025a1 1 0 01.885.478c.076.1.128.21.157.327.029.117.047.234.057.352.01.117.014.184.014.2v.177c-.133.687-.47 1.42-1.013 2.2-.543.78-1.232 1.622-2.07 2.528-.837.905-1.36 1.5-1.57 1.785-.171.201-.257.386-.257.553 0 .135.076.285.229.453l4.168 4.627c.228.268.342.562.342.88 0 .386-.171.705-.514.956-.342.252-.752.394-1.227.428l-.486.025h-4.339a.988.988 0 00-.114.012.988.988 0 01-.114.013c-.419 0-.809-.16-1.17-.478-.134-.134-1.028-1.123-2.684-2.967a1.459 1.459 0 00-.4-.327c-.075.268-.175.653-.3 1.156-.123.503-.213.864-.27 1.082l-.086.427c-.19.587-.59.94-1.199 1.057l-.4.025H12.71c-1.58 0-3.154-.637-4.725-1.912-1.57-1.274-2.983-2.92-4.239-4.941C2.49 11.253 1.32 8.9.235 6.219a1.804 1.804 0 01-.144-.73zm17.157 6.513c-.4 0-.762-.097-1.085-.29-.324-.192-.485-.456-.485-.791V5.138c0-.336-.095-.575-.286-.717-.19-.143-.523-.214-.999-.214l-1.627.05c-.818 0-1.437.126-1.855.378.837.352 1.255.922 1.255 1.71v4.426a1.463 1.463 0 01-.57 1.043 1.773 1.773 0 01-1.142.415c-.571 0-1.009-.243-1.313-.729-1.485-1.978-2.589-3.856-3.312-5.633l-.257-.654-3.796-.025c-.248 0-.386.012-.414.038-.029.025-.043.096-.043.213 0 .151.019.31.057.478l.6 1.408c1.598 3.638 3.335 6.505 5.21 8.601 1.874 2.096 3.715 3.144 5.523 3.144h2.854c.115 0 .2-.03.257-.088.058-.06.105-.172.143-.34l.057-.252.543-2.213c.152-.301.285-.502.4-.603.209-.184.456-.277.741-.277.457 0 .924.243 1.4.73l2.426 2.716c.152.218.314.327.485.327h4.71c.571 0 .857-.126.857-.378a.444.444 0 00-.086-.251l-4.14-4.552c-.323-.352-.485-.73-.485-1.132 0-.402.153-.788.457-1.156.248-.336.728-.893 1.442-1.673a38.176 38.176 0 001.87-2.188c.532-.679.884-1.295 1.056-1.848l.085-.327a.347.347 0 01-.028-.163.538.538 0 00-.029-.189h-4.482a1.55 1.55 0 00-.685.453l-.17.477c-.477 1.157-1.723 2.943-3.74 5.357a2.11 2.11 0 01-1.4.503z" fill="#c9e0bb"/></svg>
